storage/app/icons/phosphoricons/duotone/clipboard-duotone.svg

<svg xmlns="http://www.w3.org/2000/svg" fill="currentColor" viewBox="0 0 256 256"><path d="M208 48v168a8 8 0 0 1-8 8H56a8 8 0 0 1-8-8V48a8 8 0 0 1 8-8h40a39.83 39.83 0 0 0-8 24v8h80v-8a39.83 39.83 0 0 0-8-24h40a8 8 0 0 1 8 8" opacity=".2"/><path d="M200 32h-36.26a47.92 47.92 0 0 0-71.48 0H56a16 16 0 0 0-16 16v168a16 16 0 0 0 16 16h144a16 16 0 0 0 16-16V48a16 16 0 0 0-16-16m-72 0a32 32 0 0 1 32 32H96a32 32 0 0 1 32-32m72 184H56V48h26.75A47.9 47.9 0 0 0 80 64v8a8 8 0 0 0 8 8h80a8 8 0 0 0 8-8v-8a47.9 47.9 0 0 0-2.75-16H200Z"/></svg>

<svg xmlns="http://www.w3.org/2000/svg" viewBox="0 0 256 256" fill="currentColor"><path d="M208,48V216a8,8,0,0,1-8,8H56a8,8,0,0,1-8-8V48a8,8,0,0,1,8-8H96a39.83,39.83,0,0,0-8,24v8h80V64a39.83,39.83,0,0,0-8-24h40A8,8,0,0,1,208,48Z" opacity="0.2"/><path d="M200,32H163.74a47.92,47.92,0,0,0-71.48,0H56A16,16,0,0,0,40,48V216a16,16,0,0,0,16,16H200a16,16,0,0,0,16-16V48A16,16,0,0,0,200,32Zm-72,0a32,32,0,0,1,32,32H96A32,32,0,0,1,128,32Zm72,184H56V48H82.75A47.93,47.93,0,0,0,80,64v8a8,8,0,0,0,8,8h80a8,8,0,0,0,8-8V64a47.93,47.93,0,0,0-2.75-16H200Z"/></svg>
